X: 34
T: VALSE A YVES
C: Yves BELOTTEAU
M: 3/4
L: 1/8
Q:1/4=128
K:C 
|:A3 G2 G/2 z/2 |AGF EAB|cBc dcd|efe dcB|
A3 G2 G/2 z/2 |AGF E3 |cBc dEd|dEd e3/2 z/2 e:|!
|:f3 e2 e/2 z/2 |Bdf e3/2 z/2 c|ABd cdc|Bcd ecA|
a3 g2 g/2 z/2 |Bdf e3/2 z/2 c|ABf efe|dcB A3:|
